!!!COM: Felis, Stefano
!!!CDT: ~1538-1603/09/25
!!!PTL: Il sesto libro de madrigali a cinque voci
!!!PPP: Venice
!!!PPR: Heirs of G. Scotto
!!!PDT: 1591
!!!PUB-format:
!!!RISM: 1591-18
!!!rime: 24
!!!OTL:	Già non son io contento
!!!AGN: Madrigal
!!!SCT: Trm0024a
!!!SCA: Trm0024a
!!!original-voices: 5
!!!extant-voices: 5
!!!complete: Y
!!!final: G
**kern	**text	**kern	**text	**kern	**text	**kern	**text	**kern	**text
*part5	*part5	*part4	*part4	*part3	*part3	*part2	*part2	*part1	*part1
*staff5	*staff5	*staff4	*staff4	*staff3	*staff3	*staff2	*staff2	*staff1	*staff1
*I"Basso	*	*I"Tenore	*	*I"Alto	*	*I"Quinto	*	*I"Canto	*
*I'B	*	*I'T	*	*I'A	*	*I'V	*	*I'C	*
*oclefF4	*	*oclefC3	*	*oclefC2	*	*oclefG2	*	*oclefG2	*
*clefF4	*	*clefGv2	*	*clefG2	*	*clefG2	*	*clefG2	*
*k[b-]	*	*k[b-]	*	*k[b-]	*	*k[b-]	*	*k[b-]	*
*omet(C)	*	*omet(C)	*	*omet(C)	*	*omet(C)	*	*omet(C)	*
*M4/2	*	*M4/2	*	*M4/2	*	*M4/2	*	*M4/2	*
=1	=1	=1	=1	=1	=1	=1	=1	=1	=1
0r	.	4r	.	4r	.	0r	.	2dd	Già
.	.	4B-y	Già	4d	Già	.	.	.	.
.	.	4A	non	4e	non	.	.	4cc	non
.	.	4G	so-	4g	so-	.	.	4b-y	so-
.	.	4d	-n'io	4f#X	-n'io	.	.	4a	-n'io
.	.	4d	con-	4f#i	con-	.	.	4dd	con-
.	.	4.e	-ten-	[2g	-ten-	.	.	4dd	-ten-
.	.	.	.	.	.	.	.	8ccL	.
.	.	8d	.	.	.	.	.	8b-yJ	.
=2	=2	=2	=2	=2	=2	=2	=2	=2	=2
1r	.	8eL	.	2g]	.	1r	.	8ccL	.
.	.	8fJ	.	.	.	.	.	8b-y	.
.	.	2g	.	.	.	.	.	8b-y	.
.	.	.	.	.	.	.	.	16a	.
.	.	.	.	.	.	.	.	16gJ	.
.	.	.	.	2d	-to,	.	.	2a	.
.	.	4f#X	.	.	.	.	.	.	.
4r	.	2g	-to,	4r	.	4r	.	2g	-to,
4G	Già	.	.	4b-y	<Già	4gg	Già	.	.
4A	non	2r	.	4a	non	4ff	non	4r	.
4c	so-	.	.	4g	so-	4ee	so-	4g	Già
=3	=3	=3	=3	=3	=3	=3	=3	=3	=3
4BnX	-n'io	2G	<Già	4g	-n'io	4dd	-n'io	4.gg	non
4Bni	con-	.	.	4dd	con-	4dd	con-	.	.
.	.	.	.	.	.	.	.	8gg	so-
1c	-ten-	4.g	non	2cc	-ten-	4.ee	-ten-	4gg	-n'io
.	.	.	.	.	.	.	.	4gg	con-
.	.	8g	so-	.	.	8dd	.	.	.
.	.	4g	-n'io	2b-y	-to>	8eeL	.	2ee	-ten-
.	.	.	.	.	.	8ffJ	.	.	.
.	.	4e	con-	.	.	2gg	.	.	.
2d	-to	2a	-ten-	2r	.	.	.	[2dd	-to
.	.	.	.	.	.	4ff#X	.	.	.
=4	=4	=4	=4	=4	=4	=4	=4	=4	=4
2r	.	2g	-to>	2r	.	2gg	-to	2dd]	.
4B-i	Lun-	4f	Lun-	4b-y	Lun-	4dd	Lun-	2r	.
8B-y	-ge	8f	-ge	8b-y	-ge	8dd	-ge	.	.
8B-y	da	8f	da	8b-y	da	8dd	da	.	.
2.F	voi,	2.f	voi,	1a	voi,	2cc	voi,	4ff	Lun-
.	.	.	.	.	.	.	.	8ff	-ge
.	.	.	.	.	.	.	.	8ff	da
.	.	.	.	.	.	2ff	che	4cc	voi,
4F	che	4F	che	.	.	.	.	4dd	che
=5	=5	=5	=5	=5	=5	=5	=5	=5	=5
4E-X	se-	4B-y	se-	4g	che	1gg	se-	2ee-X	se-
4C	-te il	4c	-te il	2cc	se-	.	.	.	.
1G	mio	2.d	mio	.	.	.	.	2dd	-te il
.	.	.	.	8bnXL	.	.	.	.	.
.	.	.	.	8aJ	.	.	.	.	.
.	.	.	.	2bni	.	4gg	-te il	2dd	mio
.	.	4d	tor-	.	.	2gg	mio	.	.
2C	tor-	[2c	-men-	2cc	-te il	.	.	2eenXi	tor-
.	.	.	.	.	.	[4aa	tor-	.	.
=6	=6	=6	=6	=6	=6	=6	=6	=6	=6
1D	-men-	4c]	.	4a	mio	4aa]	.	1dd	-men-
.	.	4B-y	.	4d	tor-	2gg	-men-	.	.
.	.	2A	.	2d	-men-	.	.	.	.
.	.	.	.	.	.	4ff#X	.	.	.
1G	-to,	2G	-to,	4d	-to,	4gg	-to,	2bnX	-to,
.	.	.	.	2g	In	2dd	In	.	.
.	.	2r	.	.	.	.	.	2bni	In
.	.	.	.	4g	co-	4ee	co-	.	.
=7	=7	=7	=7	=7	=7	=7	=7	=7	=7
0r	.	0r	.	4a	-sì	2ff	-sì	4cc	co-
.	.	.	.	2b-y	dol-	.	.	2dd	-sì
.	.	.	.	.	.	2.gg	dol-	.	.
.	.	.	.	4g	-ce	.	.	4ee	dol-
.	.	.	.	1a	mo-	.	.	4cc	-ce
.	.	.	.	.	.	4ff	-ce	2dd	mo-
.	.	.	.	.	.	2ee	mo-	.	.
.	.	.	.	.	.	.	.	4cc#i	.
=8	=8	=8	=8	=8	=8	=8	=8	=8	=8
0r	.	4r	.	1d	-do	2dd	-do	2dd	-do
.	.	4a	M'ar-	.	.	.	.	.	.
.	.	2f	-de il	.	.	4r	.	2aa	M'ar-
.	.	.	.	.	.	4ff	M'ar-	.	.
.	.	2g	pen-	1r	.	4ee	-de il	4gg	-de il
.	.	.	.	.	.	4dd	pen-	4ff	pen-
.	.	[2a	-sier;	.	.	[2cc#X	-sier;	[2ee	-sier;
=9	=9	=9	=9	=9	=9	=9	=9	=9	=9
0r	.	4a]	.	4r	.	4cc#]	.	4ee]	.
.	.	4f	ma	4a	ma	4dd	ma	4aa	ma
.	.	4.f	s'e-	4.cc	s'e-	4.ff	s'e-	4.aa	s'e-
.	.	8f	-gli a	8cc	-gli a	8ff	-gli a	8aa	-gli a
.	.	4c	voi	4cc	voi	4ee	voi	4gg	voi
.	.	4c	me	4cc	me	4ee	me	4gg	me
.	.	2d	giun-	2a	giun-	2dd	giun-	2ff	giun-
=10	=10	=10	=10	=10	=10	=10	=10	=10	=10
0r	.	2A	-ge	2a	-ge	2cc#X	-ge	4ee	-ge
.	.	.	.	.	.	.	.	4ee	Io
.	.	2r	.	2r	.	4r	.	4ff	ve
.	.	.	.	.	.	4ee	Io	4gg	ri-
.	.	1r	.	4r	.	4ff	ve	4aa	-mi-
.	.	.	.	4e	Io	4gg	ri-	4gg	-ro et
.	.	.	.	4f	ve	4aa	-mi-	4ff	o-
.	.	.	.	4g	ri-	8ggL	.	8eeL	.
.	.	.	.	.	.	8ffJ	.	8ddJ	.
=11	=11	=11	=11	=11	=11	=11	=11	=11	=11
0r	.	1r	.	4a	-mi-	4ee	.	4cc#X	.
.	.	.	.	4b-y	-ro et	4dd	-ro et	2dd	.
.	.	.	.	2a	o-	2ee	o-	.	.
.	.	.	.	.	.	.	.	4cc#X	.
.	.	4r	.	2d	-do	1dd	-do	2dd	-do
.	.	4d	A-	.	.	.	.	.	.
.	.	4.f	-l'ho-	4r	.	.	.	2r	.
.	.	.	.	4d	A-	.	.	.	.
.	.	8g	-ra	.	.	.	.	.	.
=12	=12	=12	=12	=12	=12	=12	=12	=12	=12
2D	A-	2.a	più	4.f	-l'ho-	0r	.	2r	.
.	.	.	.	8g	-ra	.	.	.	.
4.F	-l'ho-	.	.	2.a	più	.	.	4r	.
.	.	4f	vi-	.	.	.	.	4a	A-
8G	.	.	.	.	.	.	.	.	.
8AL	.	4e	-cin	.	.	.	.	4.ccnX	-l'ho-
8G	.	.	.	.	.	.	.	.	.
8A	.	4a	che	4cc	vi-	.	.	.	.
8B-yJ	.	.	.	.	.	.	.	8dd	-ra
4c	.	[2g	son	4cc	-cin	.	.	8eeL	più
.	.	.	.	.	.	.	.	8dd	.
4c	-ra	.	.	4g	che	.	.	8ee	.
.	.	.	.	.	.	.	.	8ffJ	.
=13	=13	=13	=13	=13	=13	=13	=13	=13	=13
4G	più	4g]	.	8b-yL	son	0r	.	4gg	.
.	.	.	.	8a	.	.	.	.	.
4G	vi-	4d	più	8b-y	.	.	.	4gg	vi-
.	.	.	.	8ccJ	.	.	.	.	.
4.B-y	-cin	4.d	lun-	4.dd	.	.	.	4ff	-cin
.	.	.	.	.	.	.	.	4dd	che
8c	che	8e	.	16ccL	.	.	.	.	.
.	.	.	.	16b-yJ	.	.	.	.	.
4d	son	4f#X	.	4a	.	.	.	4dd	son
4e-i	più	2g	.	4g	più	.	.	4cc	più
2d	lun-	.	.	2a	lun-	.	.	2dd	lun-
.	.	4f#i	.	.	.	.	.	.	.
=14	=14	=14	=14	=14	=14	=14	=14	=14	=14
2G	-ge,	2g	-ge,	4g	-ge,	4r	.	2dd	-ge,
.	.	.	.	2g	Et	2b-y	Et	.	.
2G	Et	1d	Et	.	.	.	.	4r	.
.	.	.	.	2b-y	a-	4.dd	a-	4gg	Et
2B-y	a-	.	.	.	.	.	.	4ff	a-
.	.	.	.	.	.	8cc	.	.	.
.	.	.	.	4.f	-mo	4b-y	.	4dd	-mo et
2F	-mo et	2c	a-	.	.	8aL	-mo et	4.ff	ar-
.	.	.	.	8g	.	8b-y	.	.	.
.	.	.	.	4a	et	8cc	.	.	.
.	.	.	.	.	.	8aJ	.	8ee	.
=15	=15	=15	=15	=15	=15	=15	=15	=15	=15
2G	ar-	2.B-y	-mo et	4.g	ar-	8b-yL	.	8ddL	.
.	.	.	.	.	.	8ccJ	.	8cc	.
.	.	.	.	.	.	4dd	.	8b-y	.
.	.	.	.	8a	.	.	.	8aJ	.
2E-X	-do e	.	.	4b-y	.	8ee-XL	ar-	4g	.
.	.	.	.	.	.	8dd	.	.	.
.	.	2e-X	ar-	2cc	.	8cc	.	4gg	-do et
.	.	.	.	.	.	8b-yJ	.	.	.
1F	go-	.	.	.	.	4a	.	1ff	go-
.	.	4d	-do e	2b-y	-do et	4b-y	-do e	.	.
.	.	2c	go-	.	.	2cc	go-	.	.
.	.	.	.	4a	go-	.	.	.	.
=16	=16	=16	=16	=16	=16	=16	=16	=16	=16
1BB-y	-do	2B-y	-do	2b-y	-do	1dd	-do	1ff	-do
.	.	1f	Più	2.dd	Più	.	.	.	.
1r	.	.	.	.	.	2ff	Più	2aa	Più
.	.	.	.	2cc	del	.	.	.	.
.	.	4c	del	.	.	4ee	del	4gg	del
.	.	4d	mio	4a	mio	4ff	mio	[4ff	mio
=17	=17	=17	=17	=17	=17	=17	=17	=17	=17
0r	.	2c	fo-	2cc	fo-	2gg	fo-	4ff]	.
.	.	.	.	.	.	.	.	4ee	fo-
.	.	4F	-co	4cc	-co	4aa	-co	4ff	-co
.	.	2B-y	se	2b-y	se	2ff	se	2dd	se
.	.	4B-y	mag-	4b-y	mag-	4ff	mag-	4dd	mag-
.	.	4G	-gior	4b-y	-gior	[2gg	-gior	4ee	-gior
.	.	4G	il	4b-y	il	.	.	4dd	il
=18	=18	=18	=18	=18	=18	=18	=18	=18	=18
1r	.	1A	sen-	1a	sen-	4gg]	.	4cc#X	sen-
.	.	.	.	.	.	4ff	il	2dd	.
.	.	.	.	.	.	2ee	sen-	.	.
.	.	.	.	.	.	.	.	4cc#X	.
2r	.	1d	-to,	2a	-to,	2dd	-to,	2dd	-to,
[2B-y	Più	.	.	[2b-y	Più	[2ff	Più	2r	.
=19	=19	=19	=19	=19	=19	=19	=19	=19	=19
2B-]	.	2r	.	2b-]	.	2ff]	.	2dd	Più
4F	del	4r	.	4a	del	4ff	del	4cc	del
4G	mio	4B-y	Più	4g	mio	4dd	mio	4b-y	mio
1F	fo-	4c	del	4a	fo-	1ff	fo-	4a	fo-
.	.	4d	mio	2b-y	-co	.	.	8gL	.
.	.	.	.	.	.	.	.	8fJ	.
.	.	2c	fo-	.	.	.	.	2cc	.
.	.	.	.	4a	se	.	.	.	.
=20	=20	=20	=20	=20	=20	=20	=20	=20	=20
2BB-y	-co	1.B-y	-co	2b-y	mag-	2ff	-co	2dd	-co
1E-X	se	.	.	1g	-gior	2.gg	se	2.ee-X	se
.	.	.	.	.	.	4gg	mag-	4ee-i	mag-
2E-i	mag-	[2G	se	2b-y	.	4.gg	-gior	[2ee-i	-gior
.	.	.	.	.	.	8ff	.	.	.
=21	=21	=21	=21	=21	=21	=21	=21	=21	=21
2C	-gior	4G]	.	4cc	.	4ee-X	.	2ee-]	.
.	.	4G	mag-	4b-y	.	4dd	.	.	.
2C	il	1c	-gior	4a	.	4cc	.	2ee-i	il
.	.	.	.	4g	.	4b-y	.	.	.
[1D	sen-	.	.	2f#X	.	2a	.	[1dd	sen-
.	.	2B-y	il	[2g	il	2g	il	.	.
=22	=22	=22	=22	=22	=22	=22	=22	=22	=22
1D]	.	1A	sen-	2g]	.	1a	sen-	1dd]	.
.	.	.	.	2f#X	sen-	.	.	.	.
1Gl	-to.	1Gl	-to.	1gl	-to.	1bnXl	-to.	1ddl	-to.
==	==	==	==	==	==	==	==	==	==
*-	*-	*-	*-	*-	*-	*-	*-	*-	*-
!!!system-decoration: [*]
!!!RDF**kern: i = editorial accidental
!!!RDF**kern: l = terminal long
!!!ENC: Emiliano Ricciardi
!!!END: 2017/11
!!!EED: Deutsch, Catherine
!!!EEV: 2018/07/09
!!!YEC: Copyright 2018 Emiliano Ricciardi, All Rights Reserved
!!!ONB: Translated from MusicXML on 2018/07/09 and edited by Craig Stuart Sapp
!!@@BEGIN:	VERSEDATA
!!@SOLERTI:	24
!!@CATALOGNUM:	Trm0024
!!@LAST_MODIFIED: 2020/07/12
!!@TITLE:		Già non son io contento
!!@GENRE:		madrigale
!!@MANUSRC:	C, V<sub>8</sub>
!!@PRINTSRC:	27, 48, 70, 141, 145, 166, 169
!!@@BEGIN:	VERSES
!!@ABOUTIT:	Ne l'istesso soggetto. (i.e., "Ne la lontananza de la sua donna dice di non poter avere alcun piacer lontano da lei se non quello ch'egli sente nel patir di lei." <i>Rime</i> 23)
!!@ABOUTEN:	On the same subject. (i.e., "In the absence of his lady, he says he experiences no pleasure away from her but the one he feels in languishing for her." <i>Rime<i/> 23)
!!@EDITOR:	Solerti, Angelo
!!@EDITION_TITLE: Le Rime di Torquato Tasso
!!@EDITION_LOC:	Bologna
!!@EDITION_PUB:	Romagnoli-Dall’Acqua
!!@EDITION_DATE:  1898-1902
!!@EDITION_VOL:	2
!!@EDITION_PAGE:  5
!!@TRANSLATOR:	Maria Pastore Passaro; adapted by Emiliano Ricciardi and Amyrose McCue Gill
!!@TRANSLATION_TITLE: Rhymes of Love
!!@TRANSLATION_LOC: Mineola, NY
!!@TRANSLATION_PUB: Legas
!!@TRANSLATION_DATE: 2011
!!@TRANSLATION_PAGE: 40-41
!!@VERSE:
!!	Già non son io contento
!!	Lunge da voi, che sete il mio tormento,
!!	In così dolce modo
!!	M'arde il pensier; ma s'egli a voi mi giunge
!!	Io vi rimiro ed odo
!!	All'ora più vicin che son più lunge,
!!	Ed amo ed ardo e godo
!!	Più del mio foco se maggior il sento.
!!@TVERSE:
!!	Indeed, I am not happy
!!	Far from you, who are my torment,
!!	In such a sweet way
!!	My thought inflames me; but if it brings me to you,
!!	I see you again and hear you,
!!	Nearer then since I am further away,
!!	And I love and burn and delight
!!	More in my fire the greater I feel it.
!!@@END:		VERSES
!!
!!@OTHER_CRIT_ED:   Torquato Tasso, <i>Rime d’amore (secondo il codice
!!		Chigiano L VIII 302)</i>, eds. Franco Gavazzeni and
!!		Vercingetorige Martignone, vol. 4 of <i>Edizione
!!		Nazionale delle opere di Torquato Tasso</i>
!!		(Alessandria: Edizioni Dell’Orso, 2004), 15.
!!@ATTRIBUTION_ABOUT:	Secure
!!		<br>
!!		This poem appears in the autograph Chigiano
!!		L.VIII.302 (Biblioteca Vaticana, Rome), compiled
!!		around 1584&ndash;85 (see Literary Sources).
!!@DATING:
!!@DEDICATEE:	Bendidio, Lucrezia
!!@COMMENTARY:
!!@@END:		VERSEDATA
!!@@BEGIN:	SETTING
!!@CATALOGNUM:	Trm0024a
!!@RIMETITLE:	Già non son io contento
!!@SETTINGTITLE: Già non son'io contento
!!@SOLERTI:	24
!!@COMPOSER:	Felis, Stefano
!!@PRINCEPSTITLE:	Il sesto libro de madrigali a cinque voci
!!@PRINCEPSLOC:	Venetia
!!@NORMLOC:	Venice
!!@NORMPUB:	Heirs of G. Scotto
!!@NORMPUBSHORT:	Scotto
!!@PRINCEPSPUB:	Eredi di Scotto
!!@PRINCEPSYEAR:	1591
!!@PRINCEPSRISM:	1591-18
!!@REPRINTS:	
!!@OVOICES:	5
!!@EXTANTVOICES:	5
!!@PARTBOOKS:	
!!@EXTPARTBOOKS:	
!!@OCLEFS:	G2,G2,C2,C3,F4
!!@OMENSURATION:	C
!!@OKEYSIG:	b-
!!@FINAL:	G
!!@TIMPEDITOR:	Deutsch, Catherine
!!@NOTE:		
!!@@END:		SETTING
